src/images/crypto-icon-svg/xzc.svg

<svg xmlns="http://www.w3.org/2000/svg" width="32" height="32" viewBox="0 0 32 32">
  <g fill="none" fill-rule="evenodd">
    <circle cx="16" cy="16" r="16" fill="#23B852"/>
    <path fill="#FFF" fill-rule="nonzero" d="M18.7251908,19.147708 L22.1145038,19.147708 L22.1145038,22.1120543 L11.9312977,22.1120543 L24.5725191,9.46010187 C24.9847328,9.0475382 25.1068702,8.42105263 24.8931298,7.88624788 C24.6641221,7.35144312 24.1450382,7 23.5496183,7 L8.45038168,7 C7.64122137,7 7,7.6417657 7,8.4516129 L7,19.147708 L13.2748092,12.8675722 L9.88549618,12.8675722 L9.88549618,9.88794567 L20.0534351,9.88794567 L7.42748092,22.5398981 C7.01526718,22.9524618 6.89312977,23.5789474 7.10687023,24.1137521 C7.33587786,24.6485569 7.85496183,25 8.45038168,25 L23.5496183,25 C24.3435115,25 25,24.3582343 25,23.5483871 L25,12.8675722 L18.7251908,19.147708 Z"/>
  </g>
</svg>

<svg xmlns="http://www.w3.org/2000/svg" width="32" height="32"><g fill="none" fill-rule="evenodd"><circle cx="16" cy="16" r="16" fill="#23B852"/><path fill="#FFF" fill-rule="nonzero" d="M18.725 19.148h3.39v2.964H11.93L24.573 9.46a1.468 1.468 0 0 0 .32-1.574A1.454 1.454 0 0 0 23.55 7H8.45C7.641 7 7 7.642 7 8.452v10.696l6.275-6.28h-3.39v-2.98h10.168L7.427 22.54a1.468 1.468 0 0 0-.32 1.574c.229.535.748.886 1.343.886h15.1A1.45 1.45 0 0 0 25 23.548v-10.68l-6.275 6.28z"/></g></svg>
